!!! OTL: Literature82
!!! Chapter: 5
!!! Section: II
!!! Page: 363
!!! Mode: 
!!! Encoder: ESM
**kern
*staff1
*I"Piano
=1-
*clefG2
*k[b-e-a-d-g-]
*D-:
*met(c)
*M4/4
8.f/L
16a-/Jk
4a-/
8.f/L
16e-/Jk
4d-/
=2
8.e-/L
16f/Jk
8a-/L
8f/J
2e-/
=3
8.f/L
16a-/Jk
4a-/
8.f/L
16e-/Jk
4d-/
=4
8e-/L
8f/J
8.e-/L
16d-/Jk
2d-/
=5
8.b-\L
16dd-\Jk
4dd-\
8cc\L
8a-\J
4b-\
=6
8b-\L
8dd-\
8cc\
8a-\J
2b-\
=7
8.b-\L
16dd-\Jk
4dd-\
8cc\L
8a-\J
4b-\
=8
!!linebreak:original
8b-\L
8dd-\
8cc\
8a-\J
2b-\
=9
8.f/L
16a-/Jk
4a-/
8.f/L
16e-/Jk
4d-/
=10
8.e-/L
16f/Jk
8a-/L
8f/J
2e-/
=11
8.f/L
16a-/Jk
4a-/
8.dd-\L
16ee-\Jk
4ff\
=12
8.ee-\L
16dd-\Jk
8ee-\L
8b-\J
2dd-\
==
*-
